X:1
T:Title
%%score { ( 1 2 ) | ( 3 4 ) }
L:1/8
Q:1/4=100
M:4/4
K:G
V:1 treble nm="Grand Piano"
V:2 treble 
V:3 bass 
V:4 bass 
V:1
 z4 [DB]4 | [DB]AGA B4 | [FA]4 [FA]4 | [Ac][Ac][GB][FA] [GB]4 | [Gd]4 [Bd]4 | %5
 [Bd][GB][Gc][Gd] [Ge]4 | [Gd]4 [DB]4 | AcBA [G,B,G]4 | [DA]4[K:bass] [^CA]4 | AA[DG]A B4 | %10
 [Ec]4[K:bass][K:treble] [Ec]4 | ccBA [DB]4 | [Gd]4 [Bd]4 | [Bd][GB][Gc][Gd] [Ge]4 | [Gd]4 [DB]4 | %15
 AcBA [G,B,G]4 |] %16
V:2
 [DB]4 z G,G,G, | x8 | D2 D2 DDDD | x8 | z2 [G,B,]2 z G,G,G, | x8 | z2 B,2 z2 G,G, | x8 | %8
 z2[K:bass] F,2 A,A,G,G, | x8 | z2[K:bass] [C,G,]2[K:treble] z G,G,G, | x8 | z2 [G,B,]2 z G,G,G, | %13
 x8 | z2 B,2 z2 G,G, | x8 |] %16
V:3
 [G,,G,]2 [G,,G,]2 [G,,G,]G,,B,,D, | z CB,C D4 | D,2 D,2 D,D,F,A, | [D,D][D,D][D,D][D,D] [G,D]4 | %4
 [G,B,]2 z2 [G,,G,]G,,B,,D, | G,[=F,G,][E,A,][D,B,] [C,C]4 | [G,B,]2 G,2 G,G,D,B,, | CEDC G,,4 | %8
 [D,F,]2 D,2 E,E,A,,A,, | [D,F,D][D,F,D][B,,G,][D,F,D] [G,D]4 | [C,G,]2 z2 [C,G,]C,C,C, | %11
 [D,F,D][D,F,D][D,G,D][D,F,D] [G,,G,]4 | [G,B,]2 z2 [G,,G,]G,,B,,D, | %13
 G,[=F,G,][E,A,][D,B,] [C,C]4 | [G,B,]2 G,2 G,G,D,B,, | CEDC G,,4 |] %16
V:4
 x8 | G,8 | x8 | x8 | x8 | x8 | x8 | [C,G,]2 [D,F,]2 z4 | x8 | x8 | x8 | x8 | x8 | x8 | x8 | %15
 [C,G,]2 [D,F,]2 z4 |] %16

